X:1
T:Title
%%score { ( 1 3 ) | ( 2 4 ) }
L:1/8
M:3/4
K:Ab
V:1 treble nm="Grand Piano"
V:3 treble 
V:2 bass 
V:4 bass 
V:1
 z2 z2[Q:1/4=108] [CE]2 | [Ec]2 [EB]2 [Ec]2 | [CEA]2 [CEA]2 [A,EG]2 | F2 A2 F2 | E4 E2 | A2 A2 B2 | %6
 [Ec]2 [Ec]2 B2 | A2 B2 c2 | B4 E2 | [Ec]2 B2 c2 | A2 [CA]2 [EG]2 | F2 A2 F2 | E4 E2 | A2 A2 B2 | %14
 [Ec]2 [Ec]2 [Fd][Fd] | c2 A2 B2 |[M:4/4] [A,CA]6 z2 |[M:2/4] (3EFG A2- | A2 A2- | A2 A2- | A4 | %21
 A2 [A_c]2 | z4 | z2 [DB]2- |[M:3/4] [DB]2 z2 z2 | z6 |] %26
V:2
 z2 z2 [A,,A,]2 | [A,,A,]2 [E,G,]2 A,2 | A,2 A,,2 C,2 | [D,A,D]2 [D,F,D]2 [F,A,D]2 | %4
 [A,C]4 [A,C]2 | [A,C]2 [A,C]2 [E,G,E]2 | [A,,A,]2 [A,,A,]2 [E,DE]2 | [A,CE]2 [G,B,E]2 [F,A,=D]2 | %8
 [E,G,E]4 [E,G,]2 | [A,,A,]2 [E,G,E]2 [A,E]2 | [A,C]2 [A,,A,]2 [C,A,]2 | %11
 [D,A,D]2 [D,F,D]2 [F,A,D]2 | [A,C]4 [A,C]2 | [A,CE]2 [A,CE]2 [E,G,E]2 | %14
 [A,,A,]2 [A,,A,]2 [D,A,][D,A,] | [E,A,E]2 [F,A,=D]2 [E,G,_D]2 |[M:4/4] A,,6 z2 | %17
[M:2/4] (3E,F,G, A,2- | A,2 [_G,CE]2- | [G,CE]2 [F,CF]2- | [F,CF]4 | [F,_CF]2 [=E,C]2 | %22
 [=E,=D]2 _E,2- | E,2 z2 |[M:3/4] E2 A,,4- | A,,2 z2 z2 |] %26
V:3
 x6 | x6 | x6 | x6 | x6 | x6 | x6 | x6 | x6 | x6 | x6 | x6 | x6 | x6 | x6 | x6 |[M:4/4] x8 | %17
[M:2/4] x4 | x4 | x4 | x4 | x4 | AA [EAc]2- | [EAc]2 G2 |[M:3/4] z2 [A,CEA]4- | [A,CEA]2 z2 z2 |] %26
V:4
 x6 | x6 | x6 | x6 | x6 | x6 | x6 | x6 | x6 | x6 | x6 | x6 | x6 | x6 | x6 | x6 |[M:4/4] x8 | %17
[M:2/4] x4 | x4 | x4 | x4 | x4 | x4 | z2 E,2- |[M:3/4] E,2 z2 z2 | x6 |] %26

